X:176
T:Tone Rowe's
M:6/8
L:1/8
R:Jig
K:DMaj
E||"D"~F3 AFE|EDB, A,B,D|F3 GFG|"G"ABF "A"AFE|
"D"~F3 AFE|EDB, A,B,D|FEF "G"GFG|"A"BAF "D"D2:|
e||"Bmi"f2 d dcd |edc Bcd|"D"f2d dcd|"G"ABF "A"Ade|
"Bmi"f2d dcd|edc "G"Bcd|"D"faf "G"gec|"A"edc "D"d2:|
